src/pos-icons/alpha-j.svg

<svg height="24" viewBox="0 0 24 24" width="24" xmlns="http://www.w3.org/2000/svg"><path d="m13 7v8h-2v-1h-2v1a2 2 0 0 0 2 2h2a2 2 0 0 0 2-2v-8z"/></svg>

<?xml version="1.0" encoding="UTF-8"?><!DOCTYPE svg PUBLIC "-//W3C//DTD SVG 1.1//EN" "http://www.w3.org/Graphics/SVG/1.1/DTD/svg11.dtd"><svg xmlns="http://www.w3.org/2000/svg" xmlns:xlink="http://www.w3.org/1999/xlink" version="1.1" id="mdi-alpha-j" width="24" height="24" viewBox="0 0 24 24"><path d="M13,7V15H11V14H9V15A2,2 0 0,0 11,17H13A2,2 0 0,0 15,15V7H13Z" /></svg>
